X:2
T:Bewitched, Bothered & Bewildered
C:Rodgers-Hart
L:1/8
M:C
I:linebreak $
K:C
"Db7" z2 G2 S|:"C" EB"C#o" c4 E2 |"Dm" FB"D#o" c4 ^F2 |"Em" (3G2 B2 c2"E+" (3^G2 B2 c2 |$
"F" AB"Fo" c4 B2 |"Am" c4"Ebo" BAG^F Ox/||1"Dm" G2"Dbo" D4 E2 |"Dm" F8 |
"Db7" G6 G2 :|2$"Dm" G2"G7" D4"Gm" x4"C7" E2 |"F" A8 "F6" x4|"Em" z8 "Eb7" x4||"Dm" BA"DmM" F4 BA |
"Dm" F4"Db7" F4 |$"C" BA"Db7" E4 BA |"C" E8 "Am" x4|"Dm" cB"Em" G4 cB |$"F" G2"Fo" G3 ABc |
"Em" d4"Ebo" c4 |"Dm" F4"Db7""_D.S. al Coda" G4 ||O"Dm" G2"Db7" d4 G2 |"C6" c8 |]


